X:87
M:2/4
L:1/8
K:G
g | d>Bd>B | g>Bd>B | e>dc>B | A2 G>g | d>Bd>B | A>GA>B | G>gG>G | G2 G |]
K:Gmin
(B/c/) | d>Bd>B | B/c/(d d>)B | c>Ac>A | A/B/(c c>)A | B>Gd>B | g>ba>g | {g}^f2 =F>F | (F2 F)B/c/ |
d>Bd>B | B/c/(d d>B) | c>Ac>A | A/B/(c c>)A | B>Ge>c | d>Bc>A | G2 D>D | [G,2G2] [G,G] |]

